X: 8
T: Reel B\'eloeil
O: Trad Qu\'ebec
R: reel
Z: 2008 John Chambers <jc:trillian.mit.edu>
M: C|
L: 1/8
K: D
FE \
| "D"D3D "(A7)"DFEG | "D"FDDE F2DF | "D"AdcB "A7"AGFE |\
[1,3 "D"DFAd "A7"BGEC :|[2,4 "D"DdAF  D2 :|
|: AG \
| "D"FAdA FAdA | "G"GBdB "Em"GBdB | "A7"Acec Acec |\
[1,3 "D"dfed "A7"cBAG :|[2,4 "A7"dfec  "D"d2 :|

%%sep 1 1 500

